icon/lg/jsfiddle.svg

<?xml version="1.0" encoding="UTF-8"?>
<svg viewBox="0 0 256 180" version="1.1" xmlns="http://www.w3.org/2000/svg" preserveAspectRatio="xMidYMid" height="1em" width="1em">
  <g>
    <path d="M148.0993,1.42108547e-14 C190.899188,1.42108547e-14 225.698335,34.0865291 226.492661,76.4518872 L226.506536,77.933066 L226.495631,78.7986635 L227.955094,79.5580647 C244.13912,88.3324037 254.893937,104.890876 255.919535,123.577285 L255.981286,125.096951 L256,126.514899 C256,155.632356 232.603069,179.264263 203.572213,179.809763 L202.207333,179.818357 L54.0530404,179.818357 C24.0942214,179.356849 0,155.101764 0,125.27593 C0,107.888534 8.27338955,91.948349 21.8379145,81.7648165 L23.1249991,80.8271071 L23.396202,80.6363778 L23.2610039,79.9525 C23.0668046,78.8479616 22.9204302,77.7316004 22.8226056,76.6064007 L22.7123717,74.9123455 L22.6755063,73.207271 C22.6755063,51.6882696 40.2228363,34.2565377 61.8486912,34.2565377 C67.4711986,34.2565377 72.9222403,35.454707 77.9118532,37.7021267 L79.3946042,38.4076813 L80.3104877,38.8855206 L81.2881571,37.2631553 C94.7685769,15.3731092 118.37072,1.19428286 144.717161,0.0719391472 L146.439223,0.0173088146 L148.0993,1.42108547e-14 Z M148.0993,11.1304348 C121.922681,11.1304348 98.5079077,26.1456672 87.4102866,49.2430071 C85.8790698,52.4299097 81.8029628,53.3996705 79.0006232,51.2437796 C74.0917028,47.4672576 68.1250788,45.3869724 61.8486912,45.3869724 C46.3535974,45.3869724 33.805941,57.8519676 33.805941,73.207271 C33.805941,76.0592097 34.2351276,78.8449466 35.0674478,81.4762163 C35.8484774,83.9453375 34.8231453,86.6268851 32.5939992,87.9450181 C19.3785627,95.7595364 11.1304348,109.79874 11.1304348,125.27593 C11.1304348,148.583412 29.6560613,167.641627 52.889562,168.651184 L54.1386388,168.688857 L202.241662,168.688857 C225.768399,168.833158 244.869565,149.905873 244.869565,126.514899 C244.869565,109.270871 234.379266,93.9433206 218.604291,87.4159441 C216.599682,86.5864758 215.276954,84.6780104 215.173389,82.5456699 L215.175774,81.9592143 L215.325179,79.5442613 L215.373393,78.2976061 L215.360916,76.4995291 C214.592823,40.2751407 184.783031,11.1304348 148.0993,11.1304348 Z M164.267401,81.6231886 C181.786046,81.6231886 196.142995,94.9851404 196.142995,111.675363 C196.142995,128.365585 181.786046,141.727536 164.267401,141.727536 C153.719342,141.727536 144.880636,136.444217 133.064236,124.999183 L130.484866,122.452043 L127.047649,118.926729 C122.698206,114.289779 120.440366,111.800662 120.27413,111.459378 L118.952975,110.096308 L116.568921,107.700722 C115.015854,106.167147 113.533719,104.759907 112.112496,103.475229 L110.025092,101.639661 C102.870297,95.5335965 97.2562334,92.7536234 91.7325991,92.7536234 C80.1896045,92.7536234 70.9874399,101.318039 70.9874399,111.675363 C70.9874399,122.032686 80.1896045,130.597102 91.7325991,130.597102 C97.7355,130.597102 102.215318,128.631951 106.316562,124.984916 C106.840703,124.518824 107.352754,124.031484 107.886684,123.493865 L110.828155,120.36122 C112.933764,118.122173 116.455804,118.014 118.694851,120.119609 C120.784629,122.084845 121.018178,125.283949 119.328091,127.52219 L118.818577,128.113158 L116.785223,130.304352 C115.737019,131.409869 114.760829,132.370543 113.712902,133.302412 C107.699539,138.649801 100.683437,141.727536 91.7325991,141.727536 C74.2139539,141.727536 59.8570051,128.365585 59.8570051,111.675363 C59.8570051,94.9851404 74.2139539,81.6231886 91.7325991,81.6231886 C103.410807,81.6231886 112.993751,88.0992983 126.842207,102.243587 C132.597071,108.332202 135.557538,111.546575 135.723608,111.886708 L138.252823,114.476076 C149.376948,125.654928 156.902556,130.597102 164.267401,130.597102 C175.810395,130.597102 185.01256,122.032686 185.01256,111.675363 C185.01256,101.318039 175.810395,92.7536234 164.267401,92.7536234 C158.2645,92.7536234 153.784682,94.7187738 149.683438,98.3658081 C149.159298,98.8319007 148.647246,99.3192404 148.113316,99.8568591 L146.80159,101.228989 L145.171845,102.989505 C143.066235,105.228552 139.544195,105.336724 137.305148,103.231115 C135.066101,101.125505 134.957929,97.6034653 137.063538,95.3644184 L139.214777,93.0463723 C140.262981,91.9408551 141.239172,90.9801817 142.287098,90.0483124 C148.300462,84.7009237 155.316563,81.6231886 164.267401,81.6231886 Z" fill="#0084FF"/>
  </g>
</svg>

<svg width="256" height="180" xmlns="http://www.w3.org/2000/svg" preserveAspectRatio="xMidYMid"><path d="M148.1 0c42.8 0 77.598 34.087 78.393 76.452l.014 1.481-.011.866 1.46.76c16.183 8.773 26.938 25.332 27.964 44.018l.061 1.52.019 1.418c0 29.117-23.397 52.75-52.428 53.295l-1.365.008H54.053C24.094 179.357 0 155.102 0 125.276c0-17.387 8.273-33.328 21.838-43.511l1.287-.938.271-.19-.135-.684a38.66 38.66 0 0 1-.438-3.347l-.11-1.694-.037-1.705c0-21.519 17.547-38.95 39.173-38.95a39.044 39.044 0 0 1 16.063 3.445l1.483.706.915.478.978-1.623A78.366 78.366 0 0 1 144.718.072l1.721-.055L148.1 0Zm0 11.13a67.242 67.242 0 0 0-60.69 38.113c-1.53 3.187-5.607 4.157-8.41 2-4.908-3.776-10.875-5.856-17.151-5.856-15.495 0-28.043 12.465-28.043 27.82 0 2.852.43 5.638 1.261 8.27a5.565 5.565 0 0 1-2.473 6.468c-13.215 7.815-21.464 21.854-21.464 37.33 0 23.308 18.526 42.367 41.76 43.376l1.249.038h148.103c23.526.144 42.628-18.783 42.628-42.174 0-17.244-10.49-32.572-26.266-39.1a5.566 5.566 0 0 1-3.43-4.87l.002-.586.15-2.415.047-1.246-.012-1.798c-.768-36.225-30.578-65.37-67.262-65.37Zm16.167 70.493c17.519 0 31.876 13.362 31.876 30.052 0 16.69-14.357 30.053-31.876 30.053-10.548 0-19.386-5.284-31.203-16.729l-2.58-2.547-3.436-3.525c-4.35-4.637-6.608-7.126-6.774-7.468l-1.321-1.363-2.384-2.395a139.71 139.71 0 0 0-4.457-4.226l-2.087-1.835c-7.155-6.106-12.769-8.886-18.292-8.886-11.543 0-20.746 8.564-20.746 18.921 0 10.358 9.203 18.922 20.746 18.922 6.002 0 10.482-1.965 14.584-5.612a34.628 34.628 0 0 0 1.57-1.491l2.941-3.133a5.565 5.565 0 0 1 8.5 7.161l-.51.591-2.033 2.191a49.503 49.503 0 0 1-3.072 2.998c-6.013 5.348-13.03 8.426-21.98 8.426-17.519 0-31.876-13.362-31.876-30.053 0-16.69 14.357-30.052 31.876-30.052 11.678 0 21.26 6.476 35.11 20.62 5.754 6.09 8.715 9.304 8.88 9.644l2.53 2.59c11.124 11.178 18.65 16.12 26.014 16.12 11.543 0 20.746-8.564 20.746-18.922 0-10.357-9.203-18.921-20.746-18.921-6.002 0-10.482 1.965-14.584 5.612a34.63 34.63 0 0 0-1.57 1.49l-1.311 1.373-1.63 1.76a5.565 5.565 0 0 1-8.108-7.625l2.15-2.318a49.503 49.503 0 0 1 3.073-2.998c6.013-5.347 13.03-8.425 21.98-8.425Z" fill="#0084FF"/></svg>
